X:1
T:Jesus Died for Me
T:Jesus Died for Me
T:Robert Dean Burleson
T:Miriam Eulalie Oatman, 1904
T:Public Domain Courtesy of the Cyber Hymnal™
C:Robert Dean Burleson
Z:Public Domain
Z:Courtesy of the Cyber Hymnal™
%%score ( 1 2 ) ( 3 4 )
L:1/8
Q:1/4=100
M:4/4
K:Eb
V:1 treble 
V:2 treble 
V:3 bass 
V:4 bass 
V:1
 [B,E]2 | [EG]3 [B,F] [B,E][B,D][B,E][Ec] | (B4 G2) [EG]2 | [DF]3 E (F<G) [DF]2 | E6 [EB]2 | %5
w: 1.~What-|e’er the road which I must|tread, * What-|e’er my lot * may|be, One|
w: 2.~When|sins like moun- tains on me|pressed, * For|heal- ing I * did|flee Un-|
w: 3.~And|lo, the pre- cious cleans- ing|flood, * Which|o- ver me * did|flow, Washed|
w: 4.~And|now I walk the nar- row|road, * Al-|though I can- * not|see, I|
 [Ge]3 [Bd] [Ac][Ad][Ae][Ec] | ([CF]4 [Fc]2) [Ec]2 | [EB]3 [Ge] ([GB][EG]) (FG) | E6 z2 || %9
w: thought I ne- ver can for-|get— * For|Je- sus died * for *|me.|
w: to the fount of Je- sus’|blood, * The|blood He shed * for *|me.|
w: ev- ery stain from off my|soul, * And|made me white * as *|snow.|
w: know by faith that I am|safe, * For|Je- sus died * for *|me.|
"^Refrain" [Ec]3 [Ec] [Ec][EA]E[Ec] | B4 [EG]2 z2 | [DF]3 [DF] [DB]<[Fd] [Ec]2 | B6 z2 | %13
w: ||||
w: Je- sus died, He died for|me (He|died for me), But he|liv-|
w: ||||
w: ||||
 [Ge]3 [Ad] [Be][EG][DA][EB] | c6 [Ec]>[Ec] | [EB] [Ge]2 z [Fd]4 | [Ge]6 |] %17
w: ||||
w: eth, He liv- eth a- gain,|And some day|the King I’ll|see|
w: ||||
w: ||||
V:2
 x2 | x8 | E6 x2 | x3 E D2 x2 | E6 x2 | x8 | x8 | x6 D2 | E6 x2 || x6 E x | EEDD x4 | x8 | %12
 D<D E2 F2 x2 | x8 | EEFE D2 x2 | x8 | x6 |] %17
V:3
 [E,G,]2 | [E,B,]3 [E,A,] [E,G,][E,F,][E,G,][E,A,] | (G,4 B,2) [E,B,]2 | %3
 [B,,A,]3 [B,,G,] (A,<B,) [B,,A,]2 | [E,G,]6 [E,G,]2 | [E,B,]3 [G,,E] [A,,E][A,,D][A,,C][A,,A,] | %6
 [A,,A,]6 [A,,A,]2 | [B,,G,]3 [B,,B,] (EB,) (A,B,) | [E,G,]6 z2 || A,2 A,2 A,[A,C][A,C]A, | %10
 [E,G,][E,G,][B,,F,][B,,B,] [E,B,]2 z2 | [F,B,]2 [F,B,]2 [F,B,]<[F,B,] [F,=A,]2 | %12
 B,<F, G,2 A,2 z2 | [E,B,]3 [F,B,] [G,B,][E,B,][F,B,][G,B,] | A,4 F,2 [A,,A,]>[A,,A,] | %15
 [B,,G,] [B,,B,]2 z [B,,B,]4 | [E,B,]6 |] %17
V:4
 x2 | x8 | E,6 x2 | x4 B,,2 x2 | x8 | x8 | x8 | x4 B,,2 B,,2 | x8 || A,2 A,2 A, x A, x | x8 | x8 | %12
 B,,6 x2 | x8 | A,A,A,G, x4 | x8 | x6 |] %17

